X:1
T:[ID 2-46a]
T:[ID 2-46a]
T:Bezeichnung standardisiert: Menuett Men\"uet 5.
T:Urheber unbekannt Datum in der hier transkribierten schriftlichen Quelle: 1767
C:Urheber unbekannt
C:Datum in der hier transkribierten schriftlichen Quelle: 1767
L:1/8
M:3/4
K:D
V:1 treble 
V:1
 f3 ede | f3 ede | fd gecE | D6 | DFAe g2 | DFFd f2 | C2 e2 d2 | c6 :: f3 gaf | edcB c2 | e3 fge | %11
 dGFE F2 | DFAe g2 | DFFd f2 | cedAFE | F6 :| %16

